public/Security-Monitoring-icon 1.svg

<svg width="102" height="125" viewBox="0 0 102 125" fill="none" xmlns="http://www.w3.org/2000/svg">
<g clip-path="url(#clip0_9_94347)">
<g clip-path="url(#clip1_9_94347)">
<path fill-rule="evenodd" clip-rule="evenodd" d="M52.8629 5.75586L21.9399 22.9028C20.4312 23.826 19.169 25.1012 18.2614 26.6193C17.3538 28.1373 16.8279 29.853 16.7289 31.6189L16.6859 105.498C16.8519 107.028 16.8739 107.46 18.0319 108.371L19.8479 109.371C19.7829 109.016 19.7539 108.627 19.7099 108.188L19.7319 34.1879C19.8449 32.1468 20.4519 30.1637 21.5007 28.4091C22.5495 26.6544 24.0087 25.1809 25.7529 24.1149L55.8649 7.4209L52.8649 5.75085L52.8629 5.75586ZM22.2009 112.432C22.0513 112.431 21.9042 112.392 21.7729 112.321L17.0729 109.705C15.3439 108.349 15.1729 107.41 15.0039 105.574L15.0329 31.5739C15.1461 29.533 15.7532 27.5502 16.802 25.7958C17.8508 24.0414 19.3099 22.5678 21.0539 21.5018L52.4329 4.10181C52.5662 4.02986 52.7154 3.99219 52.8669 3.99219C53.0184 3.99219 53.1676 4.02986 53.3009 4.10181L58.0009 6.71082C58.126 6.78225 58.23 6.88553 58.3024 7.01013C58.3747 7.13474 58.4128 7.27621 58.4128 7.42029C58.4128 7.56437 58.3747 7.70596 58.3024 7.83057C58.23 7.95517 58.126 8.05844 58.0009 8.12988L26.6509 25.5128C25.1412 26.4337 23.8776 27.7074 22.9687 29.2244C22.0598 30.7413 21.5328 32.4562 21.4329 34.2218L21.4119 108.107C21.5559 109.638 21.6119 110.068 22.7359 110.98C22.82 111.039 22.8913 111.115 22.9454 111.203C22.9995 111.291 23.0354 111.388 23.0509 111.49C23.0664 111.592 23.0612 111.696 23.0356 111.796C23.01 111.895 22.9645 111.989 22.9019 112.071C22.8218 112.182 22.7165 112.273 22.5947 112.335C22.4729 112.398 22.3379 112.431 22.2009 112.432Z" fill="#1B69FF"/>
<path fill-rule="evenodd" clip-rule="evenodd" d="M57.5678 8.37183L26.6538 25.5178C25.161 26.4492 23.91 27.7208 23.003 29.2286C22.0961 30.7364 21.559 32.4375 21.4358 34.1927L21.4148 108.113C21.3509 108.646 21.4305 109.187 21.6454 109.679C21.8602 110.171 22.2024 110.597 22.6368 110.913C23.1461 111.119 23.6992 111.192 24.2446 111.127C24.79 111.061 25.3099 110.859 25.7558 110.538L71.1818 85.3638C72.6692 84.4255 73.9155 83.1513 74.8205 81.6436C75.7256 80.1358 76.2642 78.4366 76.3928 76.6827L76.4148 18.8508L57.5698 8.37573L57.5678 8.37183ZM23.6708 112.8C23.0068 112.806 22.3524 112.64 21.7708 112.32C21.0733 111.876 20.5117 111.248 20.1479 110.506C19.7841 109.763 19.6322 108.935 19.7088 108.112L19.7308 34.1918C19.8597 32.1459 20.4785 30.161 21.535 28.4043C22.5916 26.6476 24.055 25.1706 25.8018 24.0978L57.1308 6.71484C57.2642 6.64307 57.4133 6.60547 57.5648 6.60547C57.7163 6.60547 57.8654 6.64307 57.9988 6.71484L77.6828 17.6638C77.8122 17.7318 77.9209 17.8334 77.9973 17.958C78.0737 18.0826 78.115 18.2257 78.1168 18.3718L78.0948 76.6718C77.9632 78.7177 77.3425 80.7022 76.2849 82.4585C75.2273 84.2148 73.7636 85.6915 72.0168 86.7648L26.6168 111.945C25.7216 112.472 24.7083 112.766 23.6698 112.8H23.6708Z" fill="#1B69FF"/>
<path fill-rule="evenodd" clip-rule="evenodd" d="M21.6697 29.9098L19.2047 28.5427L16.9697 27.3008C16.2988 28.6308 15.9235 30.0901 15.8697 31.5787L15.8477 105.499C16.0137 107.199 16.0867 107.892 17.4977 109.004L22.1977 111.62C20.7857 110.507 20.7137 109.812 20.5467 108.114L20.5687 34.1937C20.6232 32.7032 20.9988 31.242 21.6697 29.9098Z" fill="#F2F5FC"/>
<path fill-rule="evenodd" clip-rule="evenodd" d="M17.377 28.4615C16.9714 29.4635 16.7508 30.5308 16.726 31.6115L16.683 105.491C16.849 107.021 16.871 107.451 18.029 108.363L19.845 109.363C19.78 109.008 19.751 108.62 19.707 108.181L19.729 34.1805C19.7775 32.8272 20.0692 31.4936 20.59 30.2435L17.377 28.4615ZM22.197 112.426C22.0474 112.424 21.9003 112.386 21.769 112.315L17.069 109.699C15.34 108.343 15.169 107.403 15 105.567L15.029 31.5675C15.0685 29.955 15.469 28.3719 16.201 26.9345C16.2514 26.8324 16.3225 26.7418 16.4098 26.6687C16.4971 26.5955 16.5986 26.5413 16.708 26.5095C16.8188 26.4735 16.936 26.4612 17.0519 26.4732C17.1678 26.4853 17.2799 26.5215 17.381 26.5796L22.081 29.1945C22.2658 29.29 22.4065 29.4531 22.4738 29.6499C22.5411 29.8467 22.5297 30.0619 22.442 30.2505C21.806 31.4778 21.4594 32.8345 21.429 34.2165L21.408 108.103C21.552 109.633 21.608 110.064 22.732 110.976C22.8161 111.035 22.8874 111.111 22.9415 111.198C22.9956 111.286 23.0315 111.384 23.047 111.486C23.0625 111.588 23.0573 111.692 23.0317 111.791C23.0061 111.891 22.9606 111.985 22.898 112.066C22.8187 112.178 22.7142 112.269 22.5931 112.332C22.472 112.395 22.3376 112.429 22.201 112.431L22.197 112.426Z" fill="#1B69FF"/>
<path d="M65.035 62.1319C64.7877 62.2944 64.5824 62.5129 64.4355 62.7698C64.2887 63.0266 64.2046 63.3145 64.19 63.61V77.365L30.19 96.948V57.866C30.19 57.319 29.812 57.093 29.345 57.366C29.0977 57.5284 28.8923 57.7469 28.7455 58.0038C28.5987 58.2606 28.5145 58.5485 28.5 58.844V98.917C28.5 99.465 28.878 99.691 29.345 99.417L65.037 78.86C65.2843 78.6975 65.4897 78.479 65.6365 78.2222C65.7833 77.9653 65.8675 77.6774 65.882 77.3819V62.636C65.885 62.094 65.502 61.8669 65.035 62.1319Z" fill="#1B69FF"/>
<path d="M73.3779 32.9996C73.2371 32.8553 73.131 32.6808 73.0677 32.4893C73.0045 32.2978 72.9857 32.0944 73.0129 31.8946C73.0839 30.0236 72.0529 28.9437 70.5479 29.3337C70.3808 29.3903 70.2006 29.3954 70.0305 29.3486C69.8605 29.3017 69.7084 29.2048 69.5939 29.0706C68.7599 28.0516 67.2099 28.3536 65.8789 29.5826V19.8896C65.8789 19.3416 65.5009 19.1166 65.0339 19.3896L38.3179 34.7767C38.0666 34.9332 37.86 35.1519 37.7179 35.4117C28.1269 52.1897 28.6729 51.1917 28.5749 51.4897C28.3559 52.1627 28.5999 52.6686 29.0939 52.5616C29.2789 52.5196 28.7939 52.7786 38.3149 47.2936C38.5622 47.1312 38.7676 46.9126 38.9144 46.6558C39.0612 46.399 39.1453 46.1111 39.1599 45.8156V41.8666C39.1599 41.3196 38.7819 41.0926 38.3149 41.3666C38.0676 41.5291 37.8622 41.7476 37.7154 42.0044C37.5686 42.2613 37.4844 42.5492 37.4699 42.8447V45.8027L31.3849 49.2996L38.6709 36.5527L64.1919 21.8526V30.5686C62.8369 30.8626 61.2919 32.3456 60.4539 34.3096C60.237 34.8392 59.9069 35.315 59.4869 35.7037C58.7316 36.3899 58.1236 37.2223 57.6997 38.1506C57.2758 39.0788 57.0449 40.0834 57.0209 41.1036C57.0213 41.6138 56.904 42.1173 56.6779 42.5746L56.6229 42.7006C55.6789 44.6686 55.6899 46.7006 56.6569 47.5506C56.7904 47.6904 56.8923 47.8575 56.9554 48.0402C57.0186 48.223 57.0416 48.4172 57.0229 48.6097C56.9039 50.3947 57.8969 51.6287 59.4849 51.2197C59.6517 51.1619 59.8321 51.1561 60.0023 51.203C60.1724 51.25 60.3244 51.3474 60.4379 51.4826C61.0569 52.2386 62.1039 52.3016 63.2379 51.6486C64.1789 51.1066 64.4249 50.5816 65.0159 50.2416C65.6069 49.9016 65.8489 50.1417 66.7949 49.5997C67.5792 49.1199 68.2508 48.4766 68.7639 47.7137V55.5026L65.4519 55.5696C65.2599 55.5486 64.9699 55.6396 64.5739 56.0796C64.4739 56.1926 62.5739 58.3466 61.2679 59.8186V55.5007C61.2679 54.9527 60.8899 54.7277 60.4229 55.0007C60.1756 55.1631 59.9702 55.3816 59.8234 55.6385C59.6766 55.8953 59.5924 56.1831 59.5779 56.4786V62.3606C59.5779 63.0866 60.2229 63.1956 60.7779 62.5606C62.8199 60.2606 64.8989 57.9006 65.0099 57.7746L69.2429 57.6886C69.8009 57.6776 70.4489 56.8256 70.4489 56.0976V44.9396C70.4799 44.9096 70.5109 44.8786 70.5419 44.8506C71.2991 44.1616 71.9082 43.3256 72.332 42.3936C72.7557 41.4616 72.9854 40.4532 73.0069 39.4296C73.0049 38.9074 73.1302 38.3925 73.3719 37.9296C74.3569 35.9326 74.3569 33.8626 73.3779 32.9996ZM64.5249 57.7576C64.4569 57.7366 64.4599 57.7386 64.5249 57.7576V57.7576Z" fill="#1B69FF"/>
</g>
</g>
<defs>
<clipPath id="clip0_9_94347">
<rect width="102" height="125" fill="white"/>
</clipPath>
<clipPath id="clip1_9_94347">
<rect width="63.12" height="125" fill="white" transform="translate(15 -4)"/>
</clipPath>
</defs>
</svg>

<svg xmlns="http://www.w3.org/2000/svg" width="102" height="125" fill="none" viewBox="0 0 102 125"><g clip-path="url(#a)"><g clip-path="url(#b)"><path fill="#1b69ff" fill-rule="evenodd" d="M52.863 5.756 21.94 22.903a10.94 10.94 0 0 0-5.211 8.716l-.043 73.879c.166 1.53.188 1.962 1.346 2.873l1.816 1c-.065-.355-.094-.744-.138-1.183l.022-74a12.62 12.62 0 0 1 6.02-10.073L55.866 7.42l-3-1.67zM22.2 112.432a.9.9 0 0 1-.428-.111l-4.7-2.616c-1.73-1.356-1.9-2.295-2.07-4.131l.03-74a12.62 12.62 0 0 1 6.02-10.072l31.38-17.4a.91.91 0 0 1 .868 0L58 6.71a.818.818 0 0 1 0 1.419L26.65 25.513a10.92 10.92 0 0 0-5.218 8.709l-.021 73.885c.144 1.531.2 1.961 1.324 2.873a.76.76 0 0 1 .315.51.77.77 0 0 1-.15.581.86.86 0 0 1-.7.361" clip-rule="evenodd"/><path fill="#1b69ff" fill-rule="evenodd" d="M57.568 8.372 26.654 25.518a11.15 11.15 0 0 0-5.218 8.675l-.021 73.92a3.02 3.02 0 0 0 1.222 2.8 3.26 3.26 0 0 0 3.119-.375l45.426-25.174a11.24 11.24 0 0 0 5.21-8.681l.023-57.832L57.57 8.376zM23.67 112.8a3.87 3.87 0 0 1-1.9-.48 4.5 4.5 0 0 1-2.062-4.208l.022-73.92a12.79 12.79 0 0 1 6.07-10.094l31.33-17.383a.92.92 0 0 1 .868 0l19.684 10.949a.81.81 0 0 1 .434.708l-.022 58.3a12.81 12.81 0 0 1-6.078 10.093l-45.4 25.18a6.2 6.2 0 0 1-2.947.855" clip-rule="evenodd"/><path fill="#f2f5fc" fill-rule="evenodd" d="m21.67 29.91-2.465-1.367L16.97 27.3a10.3 10.3 0 0 0-1.1 4.278l-.022 73.92c.166 1.7.239 2.393 1.65 3.505l4.7 2.616c-1.412-1.113-1.484-1.808-1.651-3.506l.022-73.92c.054-1.49.43-2.952 1.1-4.284" clip-rule="evenodd"/><path fill="#1b69ff" fill-rule="evenodd" d="M17.377 28.462a9 9 0 0 0-.651 3.15l-.043 73.879c.166 1.53.188 1.96 1.346 2.872l1.816 1c-.065-.355-.094-.743-.138-1.182l.022-74c.049-1.354.34-2.687.861-3.937zm4.82 83.964a.9.9 0 0 1-.428-.111l-4.7-2.616c-1.729-1.356-1.9-2.296-2.069-4.132l.029-74c.04-1.612.44-3.195 1.172-4.632a.82.82 0 0 1 .507-.425.84.84 0 0 1 .673.07l4.7 2.615a.806.806 0 0 1 .361 1.055 9.05 9.05 0 0 0-1.013 3.967l-.021 73.886c.144 1.53.2 1.961 1.324 2.873a.765.765 0 0 1 .166 1.09.86.86 0 0 1-.697.365z" clip-rule="evenodd"/><path fill="#1b69ff" d="M65.035 62.132a1.88 1.88 0 0 0-.845 1.478v13.755l-34 19.583V57.866c0-.547-.378-.773-.845-.5a1.88 1.88 0 0 0-.845 1.478v40.073c0 .548.378.774.845.5L65.037 78.86a1.88 1.88 0 0 0 .845-1.478V62.636c.003-.542-.38-.77-.847-.504"/><path fill="#1b69ff" d="M73.378 33a1.33 1.33 0 0 1-.365-1.105c.07-1.871-.96-2.951-2.465-2.561a.88.88 0 0 1-.954-.263c-.834-1.02-2.384-.717-3.715.512V19.89c0-.548-.378-.773-.845-.5L38.318 34.777a1.7 1.7 0 0 0-.6.635c-9.591 16.778-9.045 15.78-9.143 16.078-.22.673.025 1.179.519 1.072.185-.042-.3.217 9.22-5.268a1.88 1.88 0 0 0 .846-1.478v-3.95c0-.546-.378-.773-.845-.5a1.88 1.88 0 0 0-.845 1.479v2.958L31.385 49.3l7.286-12.747 25.52-14.7v8.716c-1.354.294-2.9 1.777-3.737 3.74a3.9 3.9 0 0 1-.967 1.395 7.53 7.53 0 0 0-2.466 5.4c0 .51-.117 1.013-.343 1.47l-.055.127c-.944 1.968-.933 4 .034 4.85a1.35 1.35 0 0 1 .366 1.059c-.12 1.785.874 3.019 2.462 2.61a.87.87 0 0 1 .953.263c.619.756 1.666.819 2.8.166.94-.542 1.187-1.067 1.778-1.407.59-.34.833-.1 1.779-.642a6.4 6.4 0 0 0 1.969-1.886v7.789l-3.312.067c-.192-.021-.482.07-.878.51-.1.113-2 2.267-3.306 3.739V55.5c0-.548-.378-.773-.845-.5a1.88 1.88 0 0 0-.845 1.478v5.882c0 .726.645.835 1.2.2 2.042-2.3 4.12-4.66 4.232-4.786l4.233-.086c.558-.011 1.206-.863 1.206-1.591V44.94l.093-.09a7.54 7.54 0 0 0 2.465-5.42 3.2 3.2 0 0 1 .365-1.5c.985-1.997.985-4.067.006-4.93m-8.853 24.758c-.068-.021-.065-.02 0 0"/></g></g><defs><clipPath id="a"><path fill="#fff" d="M0 0h102v125H0z"/></clipPath><clipPath id="b"><path fill="#fff" d="M15-4h63.12v125H15z"/></clipPath></defs></svg>
